X: 44
T:Idas Farvl
M:4/4
L:1/8
C:Roger Talroth
S:Vsen
K:G
"Am"e2c2e2|:"Em"^G3AB2d2|c2B2"Am"A4-|A2B2c2d2|"C"e3ee2e2|"D"f2d2"Em"g4-|
g2a2g2f2|"Am"e2d2c2e2|d2c2B4-|"Em"B2e2c2e2|^G3AB2d2|c2B2"Am"A4-|1A2e2c2e
2:|2A2|:"Am"a2^g2a2|"Em"b8|"Am"a4e4-|e2a2c'2b2|"Em"g4e4|"D"d4"Em"e4-|e2e
2g2f2|"G"d4B4|"Am"A4B4-|B2e2c2e2|"D"d4c4|"Em"B4"Am"A4-|A2:|
